src/main/resources/icons/MicroservicesIcons/icons/mq/amazonSQS.svg

<svg width="16" height="16" viewBox="0 0 16 16" fill="none" xmlns="http://www.w3.org/2000/svg">
<path fill-rule="evenodd" clip-rule="evenodd" d="M8.5 7.94422L14.5 4.91644V11.4164L8.5 14.4442V7.94422Z" fill="#F4AF3D"/>
<path fill-rule="evenodd" clip-rule="evenodd" d="M7.5 7.94422L1.5 4.91644V11.4164L7.5 14.4442V7.94422Z" fill="#F4AF3D"/>
<path fill-rule="evenodd" clip-rule="evenodd" d="M14.1 4.09656L7.99998 1.5L1.89998 4.09656L7.99998 7.12434L14.1 4.09656Z" fill="#F4AF3D"/>
</svg>

<svg width="16" height="16" viewBox="0 0 16 16" fill="none" xmlns="http://www.w3.org/2000/svg"><rect id="frame" width="16" height="16" fill="none"/><path fill-rule="evenodd" clip-rule="evenodd" d="M8.5 7.944l6-3.028v6.5l-6 3.028v-6.5z" fill="#F4AF3D"/><path fill-rule="evenodd" clip-rule="evenodd" d="M7.5 7.944l-6-3.028v6.5l6 3.028v-6.5z" fill="#F4AF3D"/><path fill-rule="evenodd" clip-rule="evenodd" d="M14.1 4.097L8 1.5 1.9 4.097 8 7.124l6.1-3.027z" fill="#F4AF3D"/></svg>
